icons/midna/devices/64/media-optical.svg

<?xml version="1.0" encoding="UTF-8" standalone="no"?>
<!-- Created with Inkscape (http://www.inkscape.org/) -->

<svg
   xmlns:dc="http://purl.org/dc/elements/1.1/"
   xmlns:cc="http://creativecommons.org/ns#"
   xmlns:rdf="http://www.w3.org/1999/02/22-rdf-syntax-ns#"
   xmlns:svg="http://www.w3.org/2000/svg"
   xmlns="http://www.w3.org/2000/svg"
   xmlns:xlink="http://www.w3.org/1999/xlink"
   xmlns:sodipodi="http://sodipodi.sourceforge.net/DTD/sodipodi-0.dtd"
   xmlns:inkscape="http://www.inkscape.org/namespaces/inkscape"
   width="64"
   height="64"
   id="svg5453"
   version="1.1"
   inkscape:version="0.91 r13725"
   sodipodi:docname="media-optical.svg">
  <defs
     id="defs5455">
    <linearGradient
       gradientTransform="matrix(1.2998888,0,0,1.3,-499.09733,-648.93736)"
       gradientUnits="userSpaceOnUse"
       y2="537.79797"
       x2="422.57147"
       y1="523.79797"
       x1="408.5715"
       id="linearGradient4372"
       xlink:href="#linearGradient4227"
       inkscape:collect="always" />
    <linearGradient
       inkscape:collect="always"
       id="linearGradient4227">
      <stop
         style="stop-color:#292c2f;stop-opacity:1"
         offset="0"
         id="stop4229" />
      <stop
         style="stop-color:#000000;stop-opacity:0;"
         offset="1"
         id="stop4231" />
    </linearGradient>
    <linearGradient
       y2="506.798"
       x2="409.57144"
       y1="540.79797"
       x1="409.57144"
       gradientTransform="matrix(1.5292812,0,0,1.529412,-592.82053,-769.10295)"
       gradientUnits="userSpaceOnUse"
       id="linearGradient3834"
       xlink:href="#linearGradient4300-7"
       inkscape:collect="always" />
    <linearGradient
       y2="506.798"
       x2="409.57144"
       y1="540.79797"
       x1="409.57144"
       gradientTransform="matrix(0.52941243,0,0,0.52941244,-184.30279,-245.30519)"
       gradientUnits="userSpaceOnUse"
       id="linearGradient3862"
       xlink:href="#linearGradient4351-8"
       inkscape:collect="always" />
    <linearGradient
       id="linearGradient4351-8"
       inkscape:collect="always">
      <stop
         id="stop4353-5"
         offset="0"
         style="stop-color:#dedede;stop-opacity:1" />
      <stop
         id="stop4355-8"
         offset="1"
         style="stop-color:#ececec;stop-opacity:1" />
    </linearGradient>
    <linearGradient
       id="linearGradient4300-7"
       inkscape:collect="always">
      <stop
         id="stop4302-2"
         offset="0"
         style="stop-color:#6c7a89;stop-opacity:1" />
      <stop
         id="stop4304-4"
         offset="1"
         style="stop-color:#768492;stop-opacity:1" />
    </linearGradient>
  </defs>
  <sodipodi:namedview
     id="base"
     pagecolor="#ffffff"
     bordercolor="#666666"
     borderopacity="1.0"
     inkscape:pageopacity="0"
     inkscape:pageshadow="2"
     inkscape:zoom="5.6568545"
     inkscape:cx="41.912243"
     inkscape:cy="29.6897"
     inkscape:document-units="px"
     inkscape:current-layer="layer1"
     showgrid="true"
     fit-margin-top="0"
     fit-margin-left="0"
     fit-margin-right="0"
     fit-margin-bottom="0"
     inkscape:window-width="1366"
     inkscape:window-height="709"
     inkscape:window-x="-4"
     inkscape:window-y="0"
     inkscape:window-maximized="1"
     inkscape:showpageshadow="false"
     borderlayer="true"
     showguides="true"
     inkscape:snap-bbox="true"
     inkscape:object-nodes="true"
     inkscape:snap-global="true">
    <inkscape:grid
       type="xygrid"
       id="grid4063"
       originx="7.9999866px"
       originy="7.9999772px" />
    <sodipodi:guide
       position="0,0"
       orientation="0,64"
       id="guide4196" />
    <sodipodi:guide
       position="64,0"
       orientation="-64,0"
       id="guide4198" />
    <sodipodi:guide
       position="64,64"
       orientation="0,-64"
       id="guide4200" />
    <sodipodi:guide
       position="6,58"
       orientation="52,0"
       id="guide4202" />
    <sodipodi:guide
       position="6,6"
       orientation="0,52"
       id="guide4204" />
    <sodipodi:guide
       position="58,6"
       orientation="-52,0"
       id="guide4206" />
    <sodipodi:guide
       position="58,58"
       orientation="0,-52"
       id="guide4208" />
  </sodipodi:namedview>
  <metadata
     id="metadata5458">
    <rdf:RDF>
      <cc:Work
         rdf:about="">
        <dc:format>image/svg+xml</dc:format>
        <dc:type
           rdf:resource="http://purl.org/dc/dcmitype/StillImage" />
        <dc:title></dc:title>
      </cc:Work>
    </rdf:RDF>
  </metadata>
  <g
     inkscape:label="Capa 1"
     inkscape:groupmode="layer"
     id="layer1"
     transform="translate(-376.57144,-491.79797)">
    <path
       style="fill:url(#linearGradient3834);fill-opacity:1.0;stroke:none"
       d="M 32 6 C 17.59725 6 6.0019531 17.59602 6.0019531 32 C 6.0019531 46.40398 17.59725 58 32 58 C 46.40275 58 57.998047 46.40398 57.998047 32 C 57.998047 17.59602 46.40275 6 32 6 z M 32 29 C 33.662 29 35 30.338 35 32 C 35 33.662 33.662 35 32 35 C 30.338 35 29 33.662 29 32 C 29 30.338 30.338 29 32 29 z "
       transform="translate(376.57144,491.79797)"
       id="rect4146" />
    <path
       style="opacity:0.2;fill:url(#linearGradient4372);fill-opacity:1;fill-rule:evenodd;stroke:none"
       d="M 38.125 25.375 L 37.570312 26.257812 A 8 8 0 0 1 40 32 A 8 8 0 0 1 32 40 A 8 8 0 0 1 25.669922 36.876953 L 24.71875 37.375 L 42.683594 55.683594 C 48.453734 53.085924 53.084131 48.454284 55.681641 42.683594 L 38.125 25.375 z M 37.025391 27.126953 L 34.736328 30.777344 C 34.90297 31.151175 35 31.562905 35 32 C 35 33.662 33.662 35 32 35 C 31.358211 35 30.768025 34.795724 30.28125 34.455078 L 26.564453 36.40625 A 7 7 0 0 0 32 39 A 7 7 0 0 0 39 32 A 7 7 0 0 0 37.025391 27.126953 z "
       transform="translate(376.57144,491.79797)"
       id="path4364" />
    <path
       style="fill:url(#linearGradient3862);fill-opacity:1;stroke:none"
       d="M 32 23 C 27.014 23 23 27.014 23 32 C 23 36.986 27.014 41 32 41 C 36.986 41 41 36.986 41 32 C 41 27.014 36.986 23 32 23 z M 32 24 A 8 8 0 0 1 40 32 A 8 8 0 0 1 32 40 A 8 8 0 0 1 24 32 A 8 8 0 0 1 32 24 z M 32 25 A 7 7 0 0 0 25 32 A 7 7 0 0 0 32 39 A 7 7 0 0 0 39 32 A 7 7 0 0 0 32 25 z M 32 29 C 33.662 29 35 30.338 35 32 C 35 33.662 33.662 35 32 35 C 30.338 35 29 33.662 29 32 C 29 30.338 30.338 29 32 29 z "
       transform="translate(376.57144,491.79797)"
       id="rect4270" />
    <path
       style="fill:#2e3132;fill-opacity:0.29411765;stroke:none"
       d="m 6.0019531,31.191406 c -0.005,0.21774 0,0.435127 0,0.654297 C 6.0019531,46.334943 17.59723,58 32,58 46.40277,58 57.998047,46.334943 57.998047,31.845703 c 0,-0.21917 0.005,-0.436557 0,-0.654297 C 57.654007,45.374776 46.18454,57 32,57 17.81546,57 6.3459931,45.374776 6.0019531,31.191406 Z"
       transform="translate(376.57144,491.79797)"
       id="rect4284"
       inkscape:connector-curvature="0"
       sodipodi:nodetypes="cssscsc" />
    <path
       style="opacity:1;fill:#2e3132;fill-opacity:0.29411766;stroke-linecap:round"
       d="M 32 24 A 8 8 0 0 0 24 32 A 8 8 0 0 0 32 40 A 8 8 0 0 0 40 32 A 8 8 0 0 0 32 24 z M 32 25 A 7 7 0 0 1 39 32 A 7 7 0 0 1 32 39 A 7 7 0 0 1 25 32 A 7 7 0 0 1 32 25 z "
       transform="translate(376.57144,491.79797)"
       id="path4558" />
  </g>
</svg>

<svg xmlns="http://www.w3.org/2000/svg" viewBox="0 0 48 48"><defs><linearGradient y2="506.8" x2="408.57" y1="540.96" x1="408.75" gradientTransform="matrix(1.52928 0 0 1.52941-592.82-769.1)" gradientUnits="userSpaceOnUse" id="0"><stop stop-color="#8798a9"/><stop offset="1" stop-color="#bfc8d1"/></linearGradient><linearGradient id="1" gradientUnits="userSpaceOnUse" y1="41" x2="0" y2="23"><stop stop-color="#3d434a"/><stop offset="1" stop-color="#5f6974"/></linearGradient></defs><g transform="matrix(.92308 0 0 .92308-353.14-459.51)"><path transform="translate(376.57 491.8)" d="m32 6c-14.403 0-25.998 11.596-25.998 26 0 14.404 11.595 26 25.998 26 14.403 0 25.998-11.596 25.998-26 0-14.404-11.595-26-25.998-26m0 23c1.662 0 3 1.338 3 3 0 1.662-1.338 3-3 3-1.662 0-3-1.338-3-3 0-1.662 1.338-3 3-3z" fill="url(#0)"/><g><path d="m32 23c-4.986 0-9 4.01-9 9 0 4.986 4.01 9 9 9 4.986 0 9-4.01 9-9 0-4.986-4.01-9-9-9m0 6c1.662 0 3 1.338 3 3 0 1.662-1.338 3-3 3-1.662 0-3-1.338-3-3 0-1.662 1.338-3 3-3" transform="translate(376.57 491.8)" fill="url(#1)"/><path d="m32 24a8 8 0 0 0 -8 8 8 8 0 0 0 8 8 8 8 0 0 0 8 -8 8 8 0 0 0 -8 -8m0 1a7 7 0 0 1 7 7 7 7 0 0 1 -7 7 7 7 0 0 1 -7 -7 7 7 0 0 1 7 -7" transform="translate(376.57 491.8)" fill="#9da9b5" stroke-linecap="round"/></g></g></svg>
